build/img/down-arrow.svg

<svg width="17" height="16" viewBox="0 0 17 16" fill="none" xmlns="http://www.w3.org/2000/svg">
<path d="M3.25948 5.31319C3.43699 5.13568 3.71477 5.11955 3.91051 5.26478L3.96659 5.31319L8.2797 9.62608L12.5928 5.31319C12.7703 5.13568 13.0481 5.11955 13.2438 5.26478L13.2999 5.31319C13.4774 5.49071 13.4936 5.76848 13.3483 5.96422L13.2999 6.0203L8.63326 10.687C8.45575 10.8645 8.17797 10.8806 7.98223 10.7354L7.92615 10.687L3.25948 6.0203C3.06422 5.82504 3.06422 5.50846 3.25948 5.31319Z" fill="black"/>
</svg>

<svg width="17" height="16" fill="none" xmlns="http://www.w3.org/2000/svg"><path d="M3.26 5.313a.5.5 0 01.65-.048l.057.048L8.28 9.626l4.313-4.313a.5.5 0 01.65-.048l.057.048a.5.5 0 01.048.651l-.048.056-4.667 4.667a.5.5 0 01-.65.048l-.057-.048L3.26 6.02a.5.5 0 010-.707z" fill="#000"/></svg>
